ufans-frontend-package/public/assets/images/new-chat/ppv_pending.svg

<svg xmlns="http://www.w3.org/2000/svg" width="448" height="448" viewBox="0 0 448 448">
  <g id="ppv_pending" transform="translate(-32 -32)">
    <path id="Path_1" data-name="Path 1" d="M208,32a176,176,0,1,0,0,352,169.71,169.71,0,0,0,48-6.72V376A120,120,0,0,1,376,256h1.28A169.712,169.712,0,0,0,384,208,176.112,176.112,0,0,0,208,32Zm0,160a47.888,47.888,0,0,1,16,93.056v8.272a16,16,0,0,1-32,0v-8.272A48,48,0,0,1,160,240a16,16,0,1,1,32,0,16,16,0,1,0,16-16,47.888,47.888,0,0,1-16-93.056v-8.272a16,16,0,0,1,32,0v8.272A48,48,0,0,1,256,176a16,16,0,1,1-32,0,16,16,0,1,0-16,16Z" fill="#e44499"/>
    <path id="Path_2" data-name="Path 2" d="M376,480A104,104,0,1,0,272,376,104,104,0,0,0,376,480Zm10.363-79.886,2.217-81.478H363.3l2.273,81.478ZM366.307,432.5a13.272,13.272,0,0,0,9.66,3.977,12.908,12.908,0,0,0,6.7-1.818,14.681,14.681,0,0,0,4.943-4.943,13.2,13.2,0,0,0,1.989-6.875,13.041,13.041,0,0,0-4.147-9.546,13.512,13.512,0,0,0-19.148,0,12.728,12.728,0,0,0-3.977,9.546,12.973,12.973,0,0,0,3.98,9.659Z" fill="#e44499" fill-rule="evenodd"/>
  </g>
</svg>

<svg width="20" height="20" viewBox="0 0 512 512" fill="none" xmlns="http://www.w3.org/2000/svg">
<path d="M208 32C161.322 32 116.556 50.5428 83.5492 83.5492C50.5428 116.556 32 161.322 32 208C32 254.678 50.5428 299.444 83.5492 332.451C116.556 365.457 161.322 384 208 384C224.239 384.068 240.404 381.805 256 377.28V376C256 344.174 268.643 313.652 291.147 291.147C313.652 268.643 344.174 256 376 256H377.28C381.805 240.404 384.068 224.239 384 208C383.97 161.331 365.418 116.582 332.418 83.582C299.418 50.582 254.669 32.0297 208 32V32ZM208 192C219.309 191.979 230.261 195.96 238.916 203.24C247.571 210.52 253.37 220.627 255.286 231.773C257.203 242.919 255.113 254.383 249.386 264.135C243.66 273.888 234.667 281.299 224 285.056V293.328C224 297.571 222.314 301.641 219.314 304.642C216.313 307.642 212.243 309.328 208 309.328C203.757 309.328 199.687 307.642 196.686 304.642C193.686 301.641 192 297.571 192 293.328V285.056C182.673 281.759 174.593 275.66 168.865 267.595C163.137 259.53 160.041 249.892 160 240C160 235.757 161.686 231.687 164.686 228.686C167.687 225.686 171.757 224 176 224C180.243 224 184.313 225.686 187.314 228.686C190.314 231.687 192 235.757 192 240C192 243.165 192.938 246.258 194.696 248.889C196.455 251.52 198.953 253.571 201.877 254.782C204.801 255.993 208.018 256.31 211.121 255.693C214.225 255.075 217.076 253.551 219.314 251.314C221.551 249.076 223.075 246.225 223.693 243.121C224.31 240.018 223.993 236.801 222.782 233.877C221.571 230.953 219.52 228.455 216.889 226.696C214.258 224.938 211.165 224 208 224C196.691 224.021 185.739 220.04 177.084 212.76C168.429 205.48 162.63 195.373 160.714 184.227C158.797 173.081 160.887 161.617 166.614 151.865C172.34 142.112 181.333 134.701 192 130.944V122.672C192 118.429 193.686 114.359 196.686 111.358C199.687 108.358 203.757 106.672 208 106.672C212.243 106.672 216.313 108.358 219.314 111.358C222.314 114.359 224 118.429 224 122.672V130.944C233.327 134.241 241.407 140.34 247.135 148.405C252.863 156.47 255.959 166.108 256 176C256 180.243 254.314 184.313 251.314 187.314C248.313 190.314 244.243 192 240 192C235.757 192 231.687 190.314 228.686 187.314C225.686 184.313 224 180.243 224 176C224 172.835 223.062 169.742 221.304 167.111C219.545 164.48 217.047 162.429 214.123 161.218C211.199 160.007 207.982 159.69 204.879 160.307C201.775 160.925 198.924 162.449 196.686 164.686C194.449 166.924 192.925 169.775 192.307 172.879C191.69 175.982 192.007 179.199 193.218 182.123C194.429 185.047 196.48 187.545 199.111 189.304C201.742 191.062 204.835 192 208 192Z" fill="#6661E7"/>
<path fill-rule="evenodd" clip-rule="evenodd" d="M376 480C433.438 480 480 433.438 480 376C480 318.562 433.438 272 376 272C318.562 272 272 318.562 272 376C272 433.438 318.562 480 376 480ZM386.363 400.114L388.58 318.636H363.295L365.568 400.114H386.363ZM366.307 432.5C368.996 435.152 372.217 436.477 375.967 436.477C378.391 436.477 380.625 435.871 382.67 434.659C384.717 433.409 386.363 431.761 387.613 429.716C388.902 427.633 389.564 425.341 389.602 422.841C389.564 419.129 388.182 415.947 385.455 413.295C382.727 410.644 379.564 409.318 375.967 409.318C372.217 409.318 368.996 410.644 366.307 413.295C363.617 415.947 362.291 419.129 362.33 422.841C362.291 426.591 363.617 429.811 366.307 432.5Z" fill="#DC3545"/>
</svg>
